<?xml version="1.0" encoding="UTF-8"?>
<map version="1.10" tiledversion="1.12.2" orientation="orthogonal" renderorder="right-down" width="32" height="32" tilewidth="32" tileheight="32" infinite="0" nextlayerid="2" nextobjectid="1">
 <editorsettings>
  <export target="../maps/map1.lua" format="lua"/>
 </editorsettings>
 <tileset firstgid="1" source="tiles_map1.tsx"/>
 <layer id="1" name="Tile Layer 1" width="32" height="32" offsetx="-1.3129" offsety="1.3129">
  <data encoding="csv">
1,1,1,1,1,1,1,1,1,1,1,1,1,1,1,1,1,1,1,1,1,1,1,1,1,1,1,1,1,1,1,1,
1,1,1,1,1,1,1,1,1,1,1,11,11,11,11,11,11,11,11,11,11,11,11,11,11,11,11,11,11,11,11,11,
1,1,1,1,1,1,1,1,1,1,11,1,1,1,1,1,1,1,1,1,1,1,1,1,1,1,1,1,1,1,1,1,
1,1,1,11,11,11,11,11,11,11,1,1,1,1,1,1,1,1,1,1,1,1,1,1,1,1,1,1,1,1,1,1,
11,11,11,9,9,9,9,25,1,1,1,1,1,1,5,1,1,1,1,1,1,1,5,1,1,1,1,1,1,1,1,1,
9,9,9,9,9,9,9,25,1,1,1,1,1,1,1,1,1,1,1,1,1,1,1,1,1,1,1,21,7,7,7,7,
9,9,9,9,9,9,9,25,1,1,1,1,1,1,1,1,1,1,1,1,1,1,1,1,1,1,1,16,1,1,1,1,
9,9,9,9,9,9,9,25,1,1,5,1,1,1,1,1,1,1,1,1,1,1,1,1,1,1,1,16,1,1,1,1,
9,9,9,9,9,9,9,25,1,1,1,1,1,1,1,21,7,7,7,7,7,7,22,1,1,1,1,16,1,1,1,1,
9,9,9,9,9,9,9,25,1,1,1,1,1,1,1,16,1,1,1,1,1,5,8,1,1,1,1,16,1,1,1,1,
9,9,9,9,9,9,27,29,5,1,1,1,1,1,1,16,5,1,1,1,1,1,8,1,1,1,1,16,1,1,1,1,
9,9,9,9,9,9,25,1,1,1,1,1,1,1,1,16,1,1,1,1,1,1,8,1,1,1,1,16,1,1,1,1,
9,9,9,9,9,9,25,1,1,1,1,1,5,1,1,11,11,11,16,1,8,11,11,1,1,1,1,16,1,1,1,1,
7,7,7,7,7,7,7,7,7,22,1,1,1,5,1,5,1,1,16,5,8,1,1,1,1,1,1,16,1,1,1,1,
1,1,1,1,1,1,1,1,1,8,1,1,1,1,5,5,1,1,11,11,11,1,1,1,1,1,1,16,1,1,1,1,
1,1,1,1,1,1,1,1,1,8,1,1,1,5,5,5,1,1,1,1,1,1,1,1,1,1,1,11,11,11,11,11,
1,1,1,1,1,1,1,1,1,8,1,1,5,1,1,1,1,1,1,1,1,1,1,1,5,1,1,26,9,9,9,9,
1,1,1,1,1,1,1,1,1,8,1,1,1,1,1,1,1,1,5,1,1,1,1,1,1,1,34,32,9,9,9,9,
1,1,1,1,1,1,1,1,1,1,7,7,7,7,7,22,1,1,1,1,5,1,1,1,1,1,26,9,9,9,9,9,
1,1,1,1,1,1,1,1,1,1,1,1,1,1,1,8,1,1,1,1,5,1,1,1,1,1,26,9,9,9,9,9,
1,1,1,1,1,1,1,1,1,1,1,1,1,1,1,8,1,1,5,1,5,1,5,1,1,1,26,9,9,9,9,9,
1,1,1,1,1,1,1,1,1,1,1,1,1,1,1,8,1,1,1,5,5,5,1,5,1,1,26,9,9,9,9,9,
11,11,11,11,11,11,11,11,16,1,1,1,1,1,1,8,1,1,1,1,5,1,1,1,1,1,26,9,9,9,9,9,
38,38,38,38,38,38,38,44,16,1,1,1,1,1,1,8,1,1,1,1,1,1,1,1,1,1,35,35,35,35,35,35,
37,37,37,37,37,37,40,39,16,1,1,1,1,1,1,8,1,1,1,1,5,1,1,1,1,1,35,35,35,35,35,35,
7,7,7,7,7,22,40,39,16,1,1,1,1,1,1,8,1,5,1,5,1,1,1,1,1,1,26,9,9,9,9,9,
1,1,1,1,1,8,40,39,11,11,11,11,11,11,11,11,1,5,5,1,1,1,1,1,1,1,26,9,9,9,9,9,
1,1,1,1,1,8,40,39,38,38,38,1,38,38,38,1,38,5,5,5,1,1,1,1,5,1,26,9,9,9,9,9,
1,1,1,1,1,8,41,37,37,37,1,37,1,37,1,37,1,1,37,1,5,1,1,1,1,1,26,9,9,9,9,9,
1,1,1,1,1,1,7,7,7,7,7,7,7,7,7,22,1,1,1,1,1,1,1,1,1,1,26,9,9,9,9,9,
1,1,1,1,1,1,1,1,1,1,1,1,1,1,1,8,1,1,5,1,1,1,1,1,1,1,26,9,9,9,9,9,
1,1,1,1,1,1,1,1,1,1,1,1,1,1,1,8,1,1,1,1,1,1,1,1,1,1,26,9,9,9,9,9
</data>
 </layer>
</map>
